assets/img/icon-layer.svg

<svg width="16" height="16" viewBox="0 0 16 16" fill="none" xmlns="http://www.w3.org/2000/svg">
<path fill-rule="evenodd" clip-rule="evenodd" d="M7.86 2.54669C7.63551 2.54669 7.45249 2.58673 7.35317 2.63121L7.35106 2.63215L3.41607 4.37955C3.21793 4.46696 3.10507 4.55017 3.04744 4.60669C3.10507 4.66321 3.21793 4.74642 3.41607 4.83384L3.41773 4.83457L7.35317 6.58217C7.45249 6.62665 7.63551 6.66669 7.86 6.66669C8.08449 6.66669 8.26751 6.62665 8.36684 6.58218L8.36895 6.58123L12.3023 4.83457L12.3039 4.83384C12.5021 4.74642 12.6149 4.66321 12.6726 4.60669C12.6149 4.55017 12.5021 4.46696 12.3039 4.37955L12.3023 4.37881L8.36684 2.63121C8.26751 2.58674 8.08449 2.54669 7.86 2.54669ZM12.7158 4.6582C12.7158 4.6582 12.7156 4.65785 12.7152 4.65717L12.7158 4.6582ZM12.7152 4.55621C12.7156 4.55553 12.7158 4.55519 12.7158 4.55519L12.7152 4.55621ZM3.00424 4.6582C3.00422 4.6582 3.00438 4.65786 3.00476 4.65717L3.00424 4.6582ZM8.9786 1.26163C8.63153 1.10651 8.22508 1.04669 7.86 1.04669C7.4949 1.04669 7.08842 1.10652 6.74133 1.26166C6.74095 1.26183 6.74056 1.262 6.74017 1.26218L2.81061 3.00717C2.81031 3.0073 2.81091 3.00704 2.81061 3.00717C2.16888 3.2905 1.51334 3.81074 1.51334 4.60669C1.51334 5.40264 2.16798 5.92248 2.8097 6.20581C2.80939 6.20568 2.81 6.20595 2.8097 6.20581L6.74017 7.9512C6.74061 7.9514 6.74105 7.9516 6.74149 7.9518C7.08855 8.10688 7.49495 8.16669 7.86 8.16669C8.22505 8.16669 8.63146 8.10688 8.97851 7.9518C8.97895 7.9516 8.97939 7.9514 8.97983 7.9512L12.9094 6.20621C12.9091 6.20633 12.9097 6.2061 12.9094 6.20621C13.5512 5.92289 14.2067 5.40268 14.2067 4.60669C14.2067 3.8107 13.552 3.29084 12.9102 3.00752C12.9099 3.0074 12.9105 3.00764 12.9102 3.00752L8.97983 1.26218C8.97942 1.26199 8.97901 1.26181 8.9786 1.26163Z" fill="#17192A"/>
<path fill-rule="evenodd" clip-rule="evenodd" d="M2 6.58301C2.41421 6.58301 2.75 6.91879 2.75 7.33301C2.75 7.4364 2.79378 7.59807 2.90282 7.76565C3.01184 7.93321 3.14173 8.0385 3.23628 8.08025L3.23813 8.08106L3.23812 8.08107L7.76338 10.0938C7.76356 10.0939 7.76375 10.0939 7.76393 10.094C7.91913 10.1625 8.08976 10.16 8.23167 10.096L8.23521 10.0944L8.23521 10.0944L12.7619 8.08107L12.7637 8.08025C12.8583 8.0385 12.9882 7.93321 13.0972 7.76565C13.2062 7.59807 13.25 7.4364 13.25 7.33301C13.25 6.91879 13.5858 6.58301 14 6.58301C14.4142 6.58301 14.75 6.91879 14.75 7.33301C14.75 7.78961 14.5838 8.23127 14.3545 8.5837C14.1254 8.93584 13.789 9.26697 13.3707 9.45197C13.3703 9.45213 13.37 9.45228 13.3696 9.45243L8.84833 11.4634C8.84771 11.4636 8.84708 11.4639 8.84646 11.4642C8.30898 11.7059 7.69398 11.7033 7.15662 11.4656L7.15521 11.4649L2.63038 9.45243C2.63003 9.45228 2.62968 9.45212 2.62932 9.45196C2.21103 9.26696 1.87463 8.93584 1.64552 8.5837C1.41622 8.23127 1.25 7.78962 1.25 7.33301C1.25 6.91879 1.58579 6.58301 2 6.58301Z" fill="#17192A"/>
<path fill-rule="evenodd" clip-rule="evenodd" d="M2 9.91699C2.41421 9.91699 2.75 10.2528 2.75 10.667C2.75 10.9878 2.93962 11.2813 3.23887 11.4154C3.23868 11.4153 3.23906 11.4155 3.23887 11.4154L7.76338 13.4278C7.7632 13.4277 7.76356 13.4278 7.76338 13.4278C7.91858 13.4962 8.08976 13.494 8.23167 13.43L8.23521 13.4284L12.7606 11.4156C12.7604 11.4157 12.7608 11.4155 12.7606 11.4156C13.0598 11.2816 13.25 10.9878 13.25 10.667C13.25 10.2528 13.5858 9.91699 14 9.91699C14.4142 9.91699 14.75 10.2528 14.75 10.667C14.75 11.586 14.2065 12.4123 13.3728 12.785L8.84833 14.7973C8.84771 14.7976 8.84708 14.7979 8.84646 14.7982C8.30898 15.0399 7.69398 15.0372 7.15662 14.7996L7.15521 14.7989L2.62724 12.785C1.79348 12.4123 1.25 11.586 1.25 10.667C1.25 10.2528 1.58579 9.91699 2 9.91699Z" fill="#17192A"/>
</svg>

<svg width="16" height="16" fill="none" xmlns="http://www.w3.org/2000/svg"><path fill-rule="evenodd" clip-rule="evenodd" d="M7.86 2.547c-.224 0-.408.04-.507.084l-.002.001L3.416 4.38c-.198.087-.31.17-.369.227.058.056.17.14.37.227l3.936 1.748c.1.045.283.085.507.085.224 0 .408-.04.507-.085h.002l3.933-1.747.002-.001c.198-.088.31-.17.369-.227a1.256 1.256 0 00-.37-.227v-.001L8.366 2.63a1.34 1.34 0 00-.507-.084zm4.856 2.111zm0-.102zm-9.712.102zM8.98 1.262c-.347-.155-.754-.215-1.119-.215s-.772.06-1.119.215L2.81 3.007c-.642.284-1.298.804-1.298 1.6s.655 1.315 1.297 1.599L6.74 7.95h.001c.348.156.754.216 1.119.216s.771-.06 1.119-.215l3.93-1.746c.642-.283 1.298-.803 1.298-1.6 0-.795-.655-1.315-1.297-1.598L8.98 1.262h-.001z" fill="#17192A"/><path fill-rule="evenodd" clip-rule="evenodd" d="M2 6.583a.75.75 0 01.75.75.86.86 0 00.153.433.853.853 0 00.333.314l.002.001 4.525 2.013a.575.575 0 00.469.002l.003-.002 4.527-2.013h.002a.853.853 0 00.333-.315.857.857 0 00.153-.433.75.75 0 011.5 0c0 .457-.166.898-.396 1.25-.229.353-.565.684-.983.869h-.001l-4.522 2.011-.002.001a2.075 2.075 0 01-1.69.002v-.001L2.63 9.452c-.419-.185-.755-.516-.984-.868-.23-.353-.396-.794-.396-1.251a.75.75 0 01.75-.75z" fill="#17192A"/><path fill-rule="evenodd" clip-rule="evenodd" d="M2 9.917a.75.75 0 01.75.75c0 .32.19.614.489.748l4.524 2.013a.577.577 0 00.469.002l.003-.002 4.526-2.012a.823.823 0 00.489-.749.75.75 0 011.5 0c0 .919-.543 1.745-1.377 2.118l-4.525 2.012-.002.001a2.076 2.076 0 01-1.69.002v-.001l-4.529-2.014a2.321 2.321 0 01-1.377-2.118.75.75 0 01.75-.75z" fill="#17192A"/></svg>
